dist/assets/img/questions/2/answers/2.svg

<svg width="548" height="312" viewBox="0 0 548 312" fill="none" xmlns="http://www.w3.org/2000/svg">
<g filter="url(#filter0_di_1495_62483)">
<path fill-rule="evenodd" clip-rule="evenodd" d="M79.0219 28C74.8838 28 71.4287 31.1557 71.0546 35.2769L65.1124 100.746C64.8535 103.597 63.0742 106.061 60.5572 107.426C52.0092 112.062 42.8296 119.369 40.0032 129.116C39.9832 129.185 40.0598 129.241 40.1197 129.201C42.9265 127.343 47.5185 124.304 53.1842 121.766C58.1212 119.555 63.022 123.777 62.533 129.164L51.4494 251.277C51.0242 255.961 54.7129 260 59.4167 260H480.293C484.431 260 487.887 256.844 488.261 252.723L507.866 36.7231C508.291 32.0386 504.602 28 499.899 28H79.0219Z" fill="#FFF0CB"/>
</g>
<defs>
<filter id="filter0_di_1495_62483" x="0" y="0" width="547.898" height="312" filterUnits="userSpaceOnUse" color-interpolation-filters="sRGB">
<feFlood flood-opacity="0" result="BackgroundImageFix"/>
<feColorMatrix in="SourceAlpha" type="matrix" values="0 0 0 0 0 0 0 0 0 0 0 0 0 0 0 0 0 0 127 0" result="hardAlpha"/>
<feOffset dy="12"/>
<feGaussianBlur stdDeviation="20"/>
<feComposite in2="hardAlpha" operator="out"/>
<feColorMatrix type="matrix" values="0 0 0 0 1 0 0 0 0 1 0 0 0 0 1 0 0 0 1 0"/>
<feBlend mode="normal" in2="BackgroundImageFix" result="effect1_dropShadow_1495_62483"/>
<feBlend mode="normal" in="SourceGraphic" in2="effect1_dropShadow_1495_62483" result="shape"/>
<feColorMatrix in="SourceAlpha" type="matrix" values="0 0 0 0 0 0 0 0 0 0 0 0 0 0 0 0 0 0 127 0" result="hardAlpha"/>
<feOffset dy="-4"/>
<feGaussianBlur stdDeviation="4"/>
<feComposite in2="hardAlpha" operator="arithmetic" k2="-1" k3="1"/>
<feColorMatrix type="matrix" values="0 0 0 0 0.883659 0 0 0 0 0.635314 0 0 0 0 0.0558422 0 0 0 0.4 0"/>
<feBlend mode="normal" in2="shape" result="effect2_innerShadow_1495_62483"/>
</filter>
</defs>
</svg>

<svg width="548" height="312" viewBox="0 0 548 312" fill="none" xmlns="http://www.w3.org/2000/svg"><g filter="url(#filter0_di_1495_62483)"><path fill-rule="evenodd" clip-rule="evenodd" d="M79.022 28a8 8 0 00-7.967 7.277l-5.943 65.469c-.258 2.851-2.038 5.315-4.555 6.68-8.548 4.636-17.727 11.943-20.554 21.69a.077.077 0 00.117.085c2.806-1.858 7.399-4.897 13.064-7.435 4.937-2.211 9.838 2.011 9.349 7.398L51.449 251.277c-.425 4.684 3.264 8.723 7.968 8.723h420.876a8 8 0 007.968-7.277l19.605-216c.425-4.684-3.264-8.723-7.967-8.723H79.022z" fill="#FFF0CB"/></g><defs><filter id="filter0_di_1495_62483" x="0" y="0" width="547.898" height="312" filterUnits="userSpaceOnUse" color-interpolation-filters="sRGB"><feFlood flood-opacity="0" result="BackgroundImageFix"/><feColorMatrix in="SourceAlpha" values="0 0 0 0 0 0 0 0 0 0 0 0 0 0 0 0 0 0 127 0" result="hardAlpha"/><feOffset dy="12"/><feGaussianBlur stdDeviation="20"/><feComposite in2="hardAlpha" operator="out"/><feColorMatrix values="0 0 0 0 1 0 0 0 0 1 0 0 0 0 1 0 0 0 1 0"/><feBlend in2="BackgroundImageFix" result="effect1_dropShadow_1495_62483"/><feBlend in="SourceGraphic" in2="effect1_dropShadow_1495_62483" result="shape"/><feColorMatrix in="SourceAlpha" values="0 0 0 0 0 0 0 0 0 0 0 0 0 0 0 0 0 0 127 0" result="hardAlpha"/><feOffset dy="-4"/><feGaussianBlur stdDeviation="4"/><feComposite in2="hardAlpha" operator="arithmetic" k2="-1" k3="1"/><feColorMatrix values="0 0 0 0 0.883659 0 0 0 0 0.635314 0 0 0 0 0.0558422 0 0 0 0.4 0"/><feBlend in2="shape" result="effect2_innerShadow_1495_62483"/></filter></defs></svg>
